!!!COM: Bach, Johann Sebastian
!!!CDT: 1685/3//-1750/7/28/
!!!OTL@@DE: Es ist das Heil uns kommen her
!!!AGN: 4-Part Chorale
!!!SCT: BH 290
!!!SCT: BWV 9
**harm	**root	**kern	**kern	**kern	**kern
!	!	!bass	!tenor	!alto	!soprno
*	*Iorgan	*Iorgan	*Iorgan	*Iorgan	*Iorgan
*M4/4	*M4/4	*M4/4	*M4/4	*M4/4	*M4/4
*met(c)	*met(c)	*met(c)	*met(c)	*met(c)	*met(c)
*MM60	*MM60	*MM60	*MM60	*MM60	*MM60
*k[f#]	*k[f#]	*k[f#]	*k[f#]	*k[f#]	*k[f#]
*G:	*G:	*G:	*G:	*G:	*G:
*>[A,A,B]	*>[A,A,B]	*>[A,A,B]	*>[A,A,B]	*>[A,A,B]	*>[A,A,B]
*>A	*>A	*>A	*>A	*>A	*>A
I	4EE	4G	4g	4b	4dd
=1	=1	=1	=1	=1	=1
I	4EE	4G	4d	8a	4dd
.	.	.	.	8b	.
V7b	4BB	4F#	4a	4cc	4dd
I	8EE	4G	4g	8b	8dd
IVc	8AA	.	.	8cc	8ee
V7b/IV	4EE	4BB	4g	4dd	4ff
=2	=2	=2	=2	=2	=2
IV	8AA	4C	8g	8dd	4ee
iib	8FF#	.	8a	8cc	.
-IIIb	8GG	8D	4b-	8f	4dd
viio7/-VII	8CC#	8E	.	8g	.
-VII;	4DD;	4F;	4f;	4a;	4cc;
Vb	4BB	4F#	4d	4a	8dd
.	.	.	.	.	8cc
=3	=3	=3	=3	=3	=3
I	4EE	4.G	8d	4g	8b
.	.	.	8c	.	8a
I	4EE	.	4B	4d	8g
.	.	8F#	.	.	8a
vi	4CC#	8E	4e	4g	4b
.	.	8F#	.	.	.
V7d/V	4FF#	8G	4A	4e	4cc#
.	.	8A	.	.	.
=4	=4	=4	=4	=4	=4
Vb	8BB	8F#	8A	4.a	4dd
V	8BB	8D	8d	.	.
V/V	4FF#	4A	4c#	.	4ee
.	.	.	.	8g	.
V;	4BB;	4D;	4A;	4f#;	4dd;
=:|!	=:|!	=:|!	=:|!	=:|!	=:|!
*>B	*>B	*>B	*>B	*>B	*>B
I	4EE	8G	4B	8g	4dd
.	.	8F#	.	8a	.
=5	=5	=5	=5	=5	=5
vi	4CC#	4E	4e	8b	4gg
.	.	.	.	8cc#	.
V	4BB	4D	8f#	4dd	4ff#
.	.	.	8g	.	.
V/V	4FF#	8A	4a	8cc#	4ee
.	.	8B	.	8b	.
V7d	4BB	8c	4d	4a	4ff#
.	.	8A	.	.	.
!!linebreak: 2
=6	=6	=6	=6	=6	=6
Ib	8EE	8B	4d	8dd	8gg
I7	8EE	8G	.	8b	8ff#
V/V	4FF#	4A	8a	4cc#	4ee
.	.	.	8g	.	.
V;	4BB;	4D;	4f#;	4a;	4dd;
I	4EE	8G	4g	8b	4dd
.	.	8A	.	8cc	.
=7	=7	=7	=7	=7	=7
Ib	8EE	8B	8d	8dd	4gg
IV	8AA	8c	8e	8cc	.
v	4BB	4d	4f	8b	4dd
.	.	.	.	8a	.
V7d/ii	8CC#	8d	8e	8g#	4ee
viio7c	8DD#	8c	8f#	8a	.
viib/ii	8EE#	8B	8g#	8b	8b
ii	8FF#	8A	8a	8e	8cc
=8	=8	=8	=8	=8	=8
V7b/ii	4CC#	4G#	8b	8e	4dd
.	.	.	8e	8b	.
ii	4FF#	4A	4e	8b	4cc
.	.	.	.	8a	.
VI;	4CC#;	4E;	4e;	8a	4b;
.	.	.	.	8g#;	.
VI	4CC#	8e	4e	4g#	4b
.	.	8d	.	.	.
=9	=9	=9	=9	=9	=9
iib	8FF#	8c	8e	8a	8a
Ib	8EE	8B	8d	8g	8b
viiob	4DD#	4A	4c	8f#	4cc
.	.	.	.	8e	.
Ic	8EE	8B	4g	8d	4b
IV7	8AA	8c	.	8e	.
V	4BB	4d	8d	4f#	4a
.	.	.	8c	.	.
=10	=10	=10	=10	=10	=10
viioD7d/-VII	4CC#	8d	4B-	4g	4e
.	.	8c#	.	.	.
V	4BB	4d	8A	4d	4f#
.	.	.	8c	.	.
I;	4EE;	4G;	4B;	4d;	4g;
==	==	==	==	==	==
*-	*-	*-	*-	*-	*-
!!chor2scor: -l 2 -s 0.6 -o %b.pmx
!!!YEC: Copyright 1994, David Huron
!!!YEC: Changes/Additions 2001 by Craig Stuart Sapp
!!!YEN: United States of America
!!!SMA: 371 Bach Chorales, edited by Ludwig Erk, C.F. Peters
!!!PDT: 1850, 1865
!!!ONB: Harmony and Root analysis done manually by Craig Sapp
